qucs/bitmaps/svg/fileclose.svg

<?xml version="1.0" encoding="UTF-8" standalone="no"?>
<!-- Created with Inkscape (http://www.inkscape.org/) -->

<svg
   xmlns:dc="http://purl.org/dc/elements/1.1/"
   xmlns:cc="http://creativecommons.org/ns#"
   xmlns:rdf="http://www.w3.org/1999/02/22-rdf-syntax-ns#"
   xmlns:svg="http://www.w3.org/2000/svg"
   xmlns="http://www.w3.org/2000/svg"
   xmlns:xlink="http://www.w3.org/1999/xlink"
   xmlns:sodipodi="http://sodipodi.sourceforge.net/DTD/sodipodi-0.dtd"
   xmlns:inkscape="http://www.inkscape.org/namespaces/inkscape"
   version="1.0"
   width="128"
   height="128"
   viewBox="0 0 128 128"
   id="Layer_1"
   xml:space="preserve"
   style="overflow:visible"
   sodipodi:docname="fileclose.svg"
   inkscape:version="0.92.3 (2405546, 2018-03-11)"><metadata
   id="metadata100"><rdf:RDF><cc:Work
       rdf:about=""><dc:format>image/svg+xml</dc:format><dc:type
         rdf:resource="http://purl.org/dc/dcmitype/StillImage" /></cc:Work></rdf:RDF></metadata><sodipodi:namedview
   pagecolor="#ffffff"
   bordercolor="#666666"
   borderopacity="1"
   objecttolerance="10"
   gridtolerance="10"
   guidetolerance="10"
   inkscape:pageopacity="0"
   inkscape:pageshadow="2"
   inkscape:window-width="1920"
   inkscape:window-height="1014"
   id="namedview98"
   showgrid="false"
   inkscape:zoom="3.6875"
   inkscape:cx="83.783716"
   inkscape:cy="81.087817"
   inkscape:window-x="0"
   inkscape:window-y="0"
   inkscape:window-maximized="1"
   inkscape:current-layer="Layer_1" /><defs
   id="defs105"><filter
     id="filter4292"><feGaussianBlur
       id="feGaussianBlur4294"
       stdDeviation="2.1604423"
       inkscape:collect="always" /></filter><linearGradient
     x1="94.343803"
     y1="102.3447"
     x2="86.535599"
     y2="94.536598"
     id="linearGradient2291"
     xlink:href="#XMLID_9_"
     gradientUnits="userSpaceOnUse" /><linearGradient
     x1="95"
     y1="103"
     x2="86.586502"
     y2="94.586502"
     id="linearGradient2293"
     xlink:href="#XMLID_10_"
     gradientUnits="userSpaceOnUse" /><linearGradient
     x1="95"
     y1="103"
     x2="87.292999"
     y2="95.292999"
     id="linearGradient2295"
     xlink:href="#XMLID_11_"
     gradientUnits="userSpaceOnUse" /><linearGradient
     x1="96"
     y1="104"
     x2="88.000198"
     y2="96.000198"
     id="linearGradient2297"
     xlink:href="#XMLID_12_"
     gradientUnits="userSpaceOnUse" /><radialGradient
     cx="102"
     cy="112.3047"
     r="139.55859"
     id="radialGradient2272"
     xlink:href="#XMLID_8_"
     gradientUnits="userSpaceOnUse"
     gradientTransform="matrix(0.9787234,0,0,0.9818182,1.3617045,1.1636364)" /><radialGradient
     cx="102"
     cy="112.3047"
     r="139.5585"
     id="radialGradient2275"
     xlink:href="#XMLID_7_"
     gradientUnits="userSpaceOnUse"
     gradientTransform="translate(2.4e-6,0)" /><filter
     id="filter3241"><feGaussianBlur
       id="feGaussianBlur3243"
       stdDeviation="1.0394514"
       inkscape:collect="always" /></filter><linearGradient
     x1="-84.002403"
     y1="-383.9971"
     x2="-12.0029"
     y2="-383.9971"
     id="linearGradient5958-4"
     gradientUnits="userSpaceOnUse"
     gradientTransform="matrix(0,1,-1,0,-39.9985,140.0029)"><stop
       id="stop5960-6"
       style="stop-color:#8c0000;stop-opacity:1"
       offset="0" /><stop
       id="stop5962-2"
       style="stop-color:#bf0000;stop-opacity:1"
       offset="1" /></linearGradient><linearGradient
     x1="-84.002403"
     y1="-383.9971"
     x2="-12.0029"
     y2="-383.9971"
     id="linearGradient4770-5"
     gradientUnits="userSpaceOnUse"
     gradientTransform="matrix(0,1,-1,0,-39.9985,140.0029)"><stop
       id="stop4772-8"
       style="stop-color:#ffbe00;stop-opacity:1"
       offset="0" /><stop
       id="stop4774-6"
       style="stop-color:#f5d600;stop-opacity:0"
       offset="1" /></linearGradient><filter
     id="filter3162"><feGaussianBlur
       id="feGaussianBlur3164"
       stdDeviation="0.96794009"
       inkscape:collect="always" /></filter><linearGradient
     id="linearGradient4296-2"><stop
       id="stop4298-8"
       style="stop-color:#ff0000;stop-opacity:1"
       offset="0" /><stop
       id="stop4300-4"
       style="stop-color:#650000;stop-opacity:1"
       offset="1" /></linearGradient><clipPath
     id="clipPath5163-7"><circle
       cx="343.99899"
       cy="92"
       r="36"
       id="circle5165-2"
       style="fill:url(#linearGradient5167);fill-opacity:1" /></clipPath><filter
     id="filter7317-4"><feGaussianBlur
       id="feGaussianBlur7319-0"
       stdDeviation="2.8805897"
       inkscape:collect="always" /></filter><linearGradient
     x1="-84.002403"
     y1="-383.9971"
     x2="-23.516129"
     y2="-383.9975"
     id="linearGradient3711-6"
     gradientUnits="userSpaceOnUse"
     gradientTransform="matrix(0,1,-1,0,-39.9985,140.0029)"><stop
       id="stop3713-2"
       style="stop-color:#ffffff;stop-opacity:1"
       offset="0" /><stop
       id="stop3715-9"
       style="stop-color:#ffffff;stop-opacity:0"
       offset="1" /></linearGradient><linearGradient
     id="linearGradient6740-9"><stop
       id="stop6742-0"
       style="stop-color:#4d0000;stop-opacity:0"
       offset="0" /><stop
       id="stop6748-8"
       style="stop-color:#4d0000;stop-opacity:1"
       offset="0.5" /><stop
       id="stop6744-1"
       style="stop-color:#4d0000;stop-opacity:0"
       offset="1" /></linearGradient><filter
     id="filter5943-3"><feGaussianBlur
       id="feGaussianBlur5945-1"
       stdDeviation="1.04"
       inkscape:collect="always" /></filter><linearGradient
     x1="-86.120354"
     y1="-381.09921"
     x2="-56.357521"
     y2="-373.1243"
     id="linearGradient3219"
     xlink:href="#linearGradient5958-4"
     gradientUnits="userSpaceOnUse"
     gradientTransform="rotate(90,-90.0007,50.0022)" /><radialGradient
     cx="345.80753"
     cy="85.250488"
     r="36"
     fx="345.80753"
     fy="85.250488"
     id="radialGradient3221"
     xlink:href="#linearGradient4770-5"
     gradientUnits="userSpaceOnUse"
     gradientTransform="matrix(0.6662862,-0.6560105,0.9893764,1.0048737,31.05592,226.43791)" /><linearGradient
     x1="328.12448"
     y1="120.81158"
     x2="336.98077"
     y2="87.759453"
     id="linearGradient3223"
     xlink:href="#linearGradient4296-2"
     gradientUnits="userSpaceOnUse" /><linearGradient
     x1="117.81589"
     y1="103.01254"
     x2="90.537666"
     y2="76.633896"
     id="linearGradient3227"
     xlink:href="#linearGradient6740-9"
     gradientUnits="userSpaceOnUse"
     gradientTransform="translate(20.000035,-56.000003)" /><linearGradient
     x1="-80.00296"
     y1="-131.93112"
     x2="-45.096584"
     y2="-131.93112"
     id="linearGradient3253"
     xlink:href="#linearGradient3711-6"
     gradientUnits="userSpaceOnUse"
     gradientTransform="matrix(0,0.73957696,-0.73957696,0,-1.6559147,63.320784)" /></defs>


<radialGradient
   cx="102"
   cy="112.3047"
   r="139.5585"
   id="XMLID_7_"
   gradientUnits="userSpaceOnUse">
	<stop
   id="stop16"
   style="stop-color:#00537d;stop-opacity:1"
   offset="0" />
	<stop
   id="stop18"
   style="stop-color:#186389;stop-opacity:1"
   offset="0.0151" />
	<stop
   id="stop20"
   style="stop-color:#558ca8;stop-opacity:1"
   offset="0.0558" />
	<stop
   id="stop22"
   style="stop-color:#89afc3;stop-opacity:1"
   offset="0.0964" />
	<stop
   id="stop24"
   style="stop-color:#b3ccd8;stop-opacity:1"
   offset="0.1357" />
	<stop
   id="stop26"
   style="stop-color:#d4e2e9;stop-opacity:1"
   offset="0.1737" />
	<stop
   id="stop28"
   style="stop-color:#ecf2f5;stop-opacity:1"
   offset="0.20990001" />
	<stop
   id="stop30"
   style="stop-color:#fafcfd;stop-opacity:1"
   offset="0.24349999" />
	<stop
   id="stop32"
   style="stop-color:#ffffff;stop-opacity:1"
   offset="0.27219999" />
</radialGradient>

<radialGradient
   cx="102"
   cy="112.3047"
   r="139.55859"
   id="XMLID_8_"
   gradientUnits="userSpaceOnUse">
	<stop
   id="stop37"
   style="stop-color:#535557;stop-opacity:1"
   offset="0" />
	
	<stop
   id="stop41"
   style="stop-color:#898a8c;stop-opacity:1"
   offset="0.11366145" />
	
	
	<stop
   id="stop47"
   style="stop-color:#ececec;stop-opacity:1"
   offset="0.20296688" />
	<stop
   id="stop49"
   style="stop-color:#fafafa;stop-opacity:1"
   offset="0.23630001" />
	<stop
   id="stop51"
   style="stop-color:#ffffff;stop-opacity:1"
   offset="0.27219999" />
	<stop
   id="stop53"
   style="stop-color:#fafafa;stop-opacity:1"
   offset="0.53130001" />
	<stop
   id="stop55"
   style="stop-color:#ebecec;stop-opacity:1"
   offset="0.84490001" />
	<stop
   id="stop57"
   style="stop-color:#e1e2e3;stop-opacity:1"
   offset="1" />
</radialGradient>

<linearGradient
   x1="94.343803"
   y1="102.3447"
   x2="86.535599"
   y2="94.536598"
   id="XMLID_9_"
   gradientUnits="userSpaceOnUse">
	<stop
   id="stop62"
   style="stop-color:#ffffff;stop-opacity:1"
   offset="0" />
	<stop
   id="stop64"
   style="stop-color:#555753;stop-opacity:1"
   offset="1" />
</linearGradient>

<linearGradient
   x1="95"
   y1="103"
   x2="86.586502"
   y2="94.586502"
   id="XMLID_10_"
   gradientUnits="userSpaceOnUse">
	<stop
   id="stop69"
   style="stop-color:#ffffff;stop-opacity:1"
   offset="0" />
	<stop
   id="stop71"
   style="stop-color:#555753;stop-opacity:1"
   offset="1" />
</linearGradient>

<linearGradient
   x1="95"
   y1="103"
   x2="87.292999"
   y2="95.292999"
   id="XMLID_11_"
   gradientUnits="userSpaceOnUse">
	<stop
   id="stop76"
   style="stop-color:#ffffff;stop-opacity:1"
   offset="0" />
	<stop
   id="stop78"
   style="stop-color:#393b38;stop-opacity:1"
   offset="1" />
</linearGradient>

<linearGradient
   x1="96"
   y1="104"
   x2="88.000198"
   y2="96.000198"
   id="XMLID_12_"
   gradientUnits="userSpaceOnUse">
	<stop
   id="stop83"
   style="stop-color:#888a85;stop-opacity:1"
   offset="0" />
	<stop
   id="stop85"
   style="stop-color:#8c8e89;stop-opacity:1"
   offset="0.0072" />
	<stop
   id="stop87"
   style="stop-color:#abaca9;stop-opacity:1"
   offset="0.0673" />
	<stop
   id="stop89"
   style="stop-color:#c5c6c4;stop-opacity:1"
   offset="0.1347" />
	<stop
   id="stop91"
   style="stop-color:#dbdbda;stop-opacity:1"
   offset="0.2115" />
	<stop
   id="stop93"
   style="stop-color:#ebebeb;stop-opacity:1"
   offset="0.3012" />
	<stop
   id="stop95"
   style="stop-color:#f7f7f6;stop-opacity:1"
   offset="0.4122" />
	<stop
   id="stop97"
   style="stop-color:#fdfdfd;stop-opacity:1"
   offset="0.5679" />
	<stop
   id="stop99"
   style="stop-color:#ffffff;stop-opacity:1"
   offset="1" />
</linearGradient>
<path
   d="m 23,9 0.04082,112 61.131184,0 c 0.53,0 1.039,-0.211 1.414,-0.586 L 118.414,87.586 C 118.789,87.211 119,86.702 119,86.172 L 119,9 23,9 z"
   transform="matrix(1.0416667,0,0,1.0357143,-9.9583333,-3.3215342)"
   id="path6594"
   style="opacity:0.5;fill:#000000;fill-opacity:1;filter:url(#filter3241)" /><path
   d="m 16.000002,8 0,112 61.172,0 c 0.53,0 1.039,-0.211 1.414,-0.586 L 111.414,86.586 C 111.789,86.211 112,85.702 112,85.172 L 112,8 16.000002,8 z"
   id="path34"
   style="fill:url(#radialGradient2275)" /><path
   d="m 18.978725,10 c -0.539276,0 -0.978723,0.440836 -0.978723,0.981818 l 0,106.036362 c 0,0.54197 0.439447,0.98182 0.978723,0.98182 l 57.913022,0 c 0.257404,0 0.509915,-0.10407 0.691957,-0.28767 L 109.71323,85.4812 C 109.89626,85.2976 110,85.045273 110,84.787055 l 0,-73.805237 C 110,10.440836 109.56153,10 109.02128,10 l -90.042555,0 z"
   id="path59"
   style="fill:url(#radialGradient2272);fill-opacity:1" /><g
   transform="translate(2.4e-6,0)"
   id="g1973"><path
     d="M 111.414,86.586 C 111.664,86.336 93.035,93 88,93 c -1.654,0 -3,1.346 -3,3 0,5.035 -6.664,23.664 -6.414,23.414 l 32.828,-32.828 z"
     id="path66"
     style="opacity:0.1;fill:url(#linearGradient2291)" /><path
     d="M 111.414,86.586 C 111.789,86.211 97.444,94 88,94 c -1.103,0 -2,0.897 -2,2 0,9.444 -7.789,23.789 -7.414,23.414 l 32.828,-32.828 z"
     id="path73"
     style="opacity:0.1;fill:url(#linearGradient2293)" /><path
     d="M 111.414,86.586 C 111.653,86.347 97.807,95 88,95 c -0.553,0 -1,0.447 -1,1 0,9.807 -8.653,23.653 -8.414,23.414 l 32.828,-32.828 z"
     id="path80"
     style="opacity:0.1;fill:url(#linearGradient2295)" /><path
     d="m 78.586,119.414 c 0,0 11.914,-9.914 17.414,-15.414 5.5,-5.5 15.414,-17.414 15.414,-17.414 0,0 -13.164,9.414 -23.414,9.414 0,10.25 -9.414,23.414 -9.414,23.414 z"
     id="path101"
     style="fill:url(#linearGradient2297)" /></g>

<g
   id="g3258"
   transform="translate(-6)"><circle
     cx="343.99899"
     cy="92"
     r="36"
     transform="matrix(-0.858425,0.2300143,-0.2300143,-0.858425,412.45865,35.850447)"
     id="circle4274"
     style="opacity:0.5;fill:#000000;fill-opacity:1;filter:url(#filter4292)" /><circle
     cx="343.99899"
     cy="92"
     r="36"
     transform="matrix(-0.85930821,0.23025097,-0.23025097,-0.85930821,412.75132,31.883223)"
     id="circle3581_2_-1"
     style="fill:url(#linearGradient3219);fill-opacity:1" /><circle
     cx="343.99899"
     cy="92"
     r="36"
     transform="matrix(-0.64448122,0.17268815,-0.17268815,-0.64448122,333.55529,31.920663)"
     id="circle4383-0"
     style="fill:url(#radialGradient3221);fill-opacity:1;filter:url(#filter3162)" /><circle
     cx="343.99899"
     cy="92"
     r="36"
     transform="matrix(-0.85930821,-0.23025097,-0.23025097,0.85930821,412.75132,32.182673)"
     clip-path="url(#clipPath5163-7)"
     id="circle4776-3"
     style="opacity:0.8;fill:none;stroke:url(#linearGradient3223);stroke-width:6.75138187;stroke-miterlimit:4;stroke-dasharray:none;stroke-opacity:1;filter:url(#filter7317-4)" /><path
     d="m 95.967113,4.1524808 c -11.357389,0 -20.847522,8.0198492 -23.134892,18.6974332 4.559347,4.250263 13.21047,7.118425 23.134892,7.118425 9.924437,0 18.575547,-2.868162 23.134887,-7.118425 C 116.81464,12.17233 107.3245,4.1524808 95.967113,4.1524808 Z"
     id="circle16776-4"
     style="opacity:0.8;fill:url(#linearGradient3253);fill-opacity:1"
     inkscape:connector-curvature="0" /><g
     transform="matrix(0.70783432,0.70783432,-0.70783432,0.70783432,35.093313,-79.804896)"
     id="g6850-0"><path
       d="m 118.00003,15.999997 v 16 h -16 v 8 h 16 v 16 h 8 v -16 h 16 v -8 h -16 v -16 z"
       id="path4123-3"
       style="fill:none;stroke:url(#linearGradient3227);stroke-width:4;stroke-linecap:round;stroke-linejoin:round;stroke-miterlimit:4;stroke-opacity:1;filter:url(#filter5943-3)"
       inkscape:connector-curvature="0" /><path
       d="m 118.00003,15.999997 v 16 h -16 v 8 h 16 v 16 h 8 v -16 h 16 v -8 h -16 v -16 z"
       id="rect3232-9"
       style="fill:#ffffff;fill-opacity:1;fill-rule:evenodd;stroke:none"
       inkscape:connector-curvature="0" /></g></g></svg>

<svg xmlns="http://www.w3.org/2000/svg" xmlns:xlink="http://www.w3.org/1999/xlink" xml:space="preserve" width="128" height="128" style="overflow:visible" version="1.0"><defs><linearGradient xlink:href="#a" id="o" x1="94.344" x2="86.536" y1="102.345" y2="94.537" gradientUnits="userSpaceOnUse"/><linearGradient xlink:href="#b" id="p" x1="95" x2="86.587" y1="103" y2="94.587" gradientUnits="userSpaceOnUse"/><linearGradient xlink:href="#c" id="q" x1="95" x2="87.293" y1="103" y2="95.293" gradientUnits="userSpaceOnUse"/><linearGradient xlink:href="#d" id="r" x1="96" x2="88" y1="104" y2="96" gradientUnits="userSpaceOnUse"/><linearGradient id="g" x1="-84.002" x2="-12.003" y1="-383.997" y2="-383.997" gradientTransform="rotate(90 -90 50.002)" gradientUnits="userSpaceOnUse"><stop offset="0" style="stop-color:#8c0000;stop-opacity:1"/><stop offset="1" style="stop-color:#bf0000;stop-opacity:1"/></linearGradient><linearGradient id="h" x1="-84.002" x2="-12.003" y1="-383.997" y2="-383.997" gradientTransform="rotate(90 -90 50.002)" gradientUnits="userSpaceOnUse"><stop offset="0" style="stop-color:#ffbe00;stop-opacity:1"/><stop offset="1" style="stop-color:#f5d600;stop-opacity:0"/></linearGradient><linearGradient id="i"><stop offset="0" style="stop-color:red;stop-opacity:1"/><stop offset="1" style="stop-color:#650000;stop-opacity:1"/></linearGradient><linearGradient id="k" x1="-84.002" x2="-23.516" y1="-383.997" y2="-383.998" gradientTransform="rotate(90 -90 50.002)" gradientUnits="userSpaceOnUse"><stop offset="0" style="stop-color:#fff;stop-opacity:1"/><stop offset="1" style="stop-color:#fff;stop-opacity:0"/></linearGradient><linearGradient id="j"><stop offset="0" style="stop-color:#4d0000;stop-opacity:0"/><stop offset=".5" style="stop-color:#4d0000;stop-opacity:1"/><stop offset="1" style="stop-color:#4d0000;stop-opacity:0"/></linearGradient><linearGradient xlink:href="#g" id="t" x1="-86.12" x2="-56.358" y1="-381.099" y2="-373.124" gradientTransform="rotate(90 -90 50.002)" gradientUnits="userSpaceOnUse"/><linearGradient xlink:href="#i" id="w" x1="328.124" x2="336.981" y1="120.812" y2="87.759" gradientUnits="userSpaceOnUse"/><linearGradient xlink:href="#j" id="y" x1="117.816" x2="90.538" y1="103.013" y2="76.634" gradientTransform="translate(20 -56)" gradientUnits="userSpaceOnUse"/><linearGradient xlink:href="#k" id="x" x1="-80.003" x2="-45.097" y1="-131.931" y2="-131.931" gradientTransform="matrix(0 .73958 -.73958 0 -1.656 63.32)" gradientUnits="userSpaceOnUse"/><radialGradient xlink:href="#e" id="n" cx="102" cy="112.305" r="139.559" gradientTransform="matrix(.97872 0 0 .98182 1.362 1.164)" gradientUnits="userSpaceOnUse"/><radialGradient xlink:href="#f" id="m" cx="102" cy="112.305" r="139.559" gradientUnits="userSpaceOnUse"/><radialGradient xlink:href="#h" id="u" cx="345.808" cy="85.25" r="36" fx="345.808" fy="85.25" gradientTransform="matrix(.66629 -.65601 .98938 1.00487 31.056 226.438)" gradientUnits="userSpaceOnUse"/><filter id="s"><feGaussianBlur stdDeviation="2.16"/></filter><filter id="l"><feGaussianBlur stdDeviation="1.039"/></filter><clipPath id="v"><circle cx="343.999" cy="92" r="36" style="fill:url(#linearGradient5167);fill-opacity:1"/></clipPath></defs><radialGradient id="f" cx="102" cy="112.305" r="139.559" gradientUnits="userSpaceOnUse"><stop offset="0" style="stop-color:#00537d;stop-opacity:1"/><stop offset=".015" style="stop-color:#186389;stop-opacity:1"/><stop offset=".056" style="stop-color:#558ca8;stop-opacity:1"/><stop offset=".096" style="stop-color:#89afc3;stop-opacity:1"/><stop offset=".136" style="stop-color:#b3ccd8;stop-opacity:1"/><stop offset=".174" style="stop-color:#d4e2e9;stop-opacity:1"/><stop offset=".21" style="stop-color:#ecf2f5;stop-opacity:1"/><stop offset=".243" style="stop-color:#fafcfd;stop-opacity:1"/><stop offset=".272" style="stop-color:#fff;stop-opacity:1"/></radialGradient><radialGradient id="e" cx="102" cy="112.305" r="139.559" gradientUnits="userSpaceOnUse"><stop offset="0" style="stop-color:#535557;stop-opacity:1"/><stop offset=".114" style="stop-color:#898a8c;stop-opacity:1"/><stop offset=".203" style="stop-color:#ececec;stop-opacity:1"/><stop offset=".236" style="stop-color:#fafafa;stop-opacity:1"/><stop offset=".272" style="stop-color:#fff;stop-opacity:1"/><stop offset=".531" style="stop-color:#fafafa;stop-opacity:1"/><stop offset=".845" style="stop-color:#ebecec;stop-opacity:1"/><stop offset="1" style="stop-color:#e1e2e3;stop-opacity:1"/></radialGradient><linearGradient id="a" x1="94.344" x2="86.536" y1="102.345" y2="94.537" gradientUnits="userSpaceOnUse"><stop offset="0" style="stop-color:#fff;stop-opacity:1"/><stop offset="1" style="stop-color:#555753;stop-opacity:1"/></linearGradient><linearGradient id="b" x1="95" x2="86.587" y1="103" y2="94.587" gradientUnits="userSpaceOnUse"><stop offset="0" style="stop-color:#fff;stop-opacity:1"/><stop offset="1" style="stop-color:#555753;stop-opacity:1"/></linearGradient><linearGradient id="c" x1="95" x2="87.293" y1="103" y2="95.293" gradientUnits="userSpaceOnUse"><stop offset="0" style="stop-color:#fff;stop-opacity:1"/><stop offset="1" style="stop-color:#393b38;stop-opacity:1"/></linearGradient><linearGradient id="d" x1="96" x2="88" y1="104" y2="96" gradientUnits="userSpaceOnUse"><stop offset="0" style="stop-color:#888a85;stop-opacity:1"/><stop offset=".007" style="stop-color:#8c8e89;stop-opacity:1"/><stop offset=".067" style="stop-color:#abaca9;stop-opacity:1"/><stop offset=".135" style="stop-color:#c5c6c4;stop-opacity:1"/><stop offset=".211" style="stop-color:#dbdbda;stop-opacity:1"/><stop offset=".301" style="stop-color:#ebebeb;stop-opacity:1"/><stop offset=".412" style="stop-color:#f7f7f6;stop-opacity:1"/><stop offset=".568" style="stop-color:#fdfdfd;stop-opacity:1"/><stop offset="1" style="stop-color:#fff;stop-opacity:1"/></linearGradient><path d="m23 9 .04 112h61.132a2 2 0 0 0 1.414-.586l32.828-32.828a2 2 0 0 0 .586-1.414V9H23z" style="opacity:.5;fill:#000;fill-opacity:1;filter:url(#l)" transform="matrix(1.04167 0 0 1.03571 -9.958 -3.322)"/><path d="M16 8v112h61.172a2 2 0 0 0 1.414-.586l32.828-32.828a2 2 0 0 0 .586-1.414V8H16z" style="fill:url(#m)"/><path d="M18.979 10c-.54 0-.979.44-.979.982v106.036c0 .542.44.982.979.982h57.913a.98.98 0 0 0 .692-.288l32.13-32.23a.988.988 0 0 0 .286-.695V10.982a.981.981 0 0 0-.979-.982H18.98z" style="fill:url(#n);fill-opacity:1"/><path d="M111.414 86.586C111.664 86.336 93.035 93 88 93c-1.654 0-3 1.346-3 3 0 5.035-6.664 23.664-6.414 23.414l32.828-32.828z" style="opacity:.1;fill:url(#o)"/><path d="M111.414 86.586C111.789 86.211 97.444 94 88 94c-1.103 0-2 .897-2 2 0 9.444-7.789 23.789-7.414 23.414l32.828-32.828z" style="opacity:.1;fill:url(#p)"/><path d="M111.414 86.586C111.653 86.347 97.807 95 88 95a1 1 0 0 0-1 1c0 9.807-8.653 23.653-8.414 23.414l32.828-32.828z" style="opacity:.1;fill:url(#q)"/><path d="M78.586 119.414S90.5 109.5 96 104c5.5-5.5 15.414-17.414 15.414-17.414S98.25 96 88 96c0 10.25-9.414 23.414-9.414 23.414z" style="fill:url(#r)"/><g transform="translate(-6)"><circle cx="343.999" cy="92" r="36" style="opacity:.5;fill:#000;fill-opacity:1;filter:url(#s)" transform="scale(-.8887) rotate(-15 -385.262 1742.466)"/><circle cx="343.999" cy="92" r="36" style="fill:url(#t);fill-opacity:1" transform="rotate(165 204.277 43.111) scale(.88962)"/><circle cx="343.999" cy="92" r="36" style="fill:url(#u);fill-opacity:1;filter:url(#filter3162)" transform="scale(-.66722) rotate(-15 -431.657 1874.718)"/><circle cx="343.999" cy="92" r="36" clip-path="url(#v)" style="opacity:.8;fill:none;stroke:url(#w);stroke-width:6.75138187;stroke-miterlimit:4;stroke-dasharray:none;stroke-opacity:1;filter:url(#filter7317-4)" transform="scale(-.88962 .88962) rotate(-15 -94.59 1780.162)"/><path d="M95.967 4.152c-11.357 0-20.847 8.02-23.135 18.698 4.56 4.25 13.21 7.118 23.135 7.118s18.576-2.868 23.135-7.118c-2.287-10.678-11.778-18.698-23.135-18.698Z" style="opacity:.8;fill:url(#x);fill-opacity:1"/><path d="M118 16v16h-16v8h16v16h8V40h16v-8h-16V16z" style="fill:none;stroke:url(#y);stroke-width:4;stroke-linecap:round;stroke-linejoin:round;stroke-miterlimit:4;stroke-opacity:1;filter:url(#filter5943-3)" transform="rotate(45 113.88 2.459) scale(1.00103)"/><path d="M118 16v16h-16v8h16v16h8V40h16v-8h-16V16z" style="fill:#fff;fill-opacity:1;fill-rule:evenodd;stroke:none" transform="rotate(45 113.88 2.459) scale(1.00103)"/></g></svg>
